!!!COM: Haydn, Franz Joseph
!!!CDT: 1732/03/31/-1809/05/31/
!!!CNT: Austrian
!!!OTL: Sonata No. 16 in D major
!!!SCT: Hob. XVI:14
!!!OMV: Mvmt. 1
!!!OMD: Allegro moderato
!!!ODT: 1760-1765///
!!!SMS: Universal Edition 1, Haydn Piano Sonatas, Vol. 1, No. 3
!!!ONB: Stich und Druck von Jos. Eberle & Co. Wien VII. Seidengasse 3-9
**kern	**kern	**dynam
*staff2	*staff1	*staff1/2
*>[A,A,B,B]	*>[A,A,B,B]	*>[A,A,B,B]
*>norep[A,B]	*>norep[A,B]	*>norep[A,B]
*>A	*>A	*>A
*clefF4	*clefG2	*clefG2
*k[f#c#]	*k[f#c#]	*k[f#c#]
*D:	*D:	*D:
*M2/4	*M2/4	*M2/4
*MM110	*MM110	*MM110
16r	(16d/	mf
=1	=1	=1
(8D\L	8.f#/L	.
8A\	.	.
.	16e/Jk	.
8E\	8.g/L	.
8A\J	.	.
.	16c#/Jk	.
=2	=2	=2
8F#\L	8.d/L	.
8A\J)	.	.
.	32f#/LL	.
.	32e/JJJ	.
8r	16.d/LL)	.
.	(32d/k	.
(8F#\	16.dd/	.
.	32cc#/JJk	.
=3	=3	=3
8G\L	16.b/LL)	.
.	(32c#/k	.
8F#\	16.d/	.
.	32a/JJk	.
.	8aQ/	.
8E\	4gT/	.
8c#\J	.	.
.	32f#Q/LLL	.
.	32gQ/JJJ	.
=4	=4	=4
.	8gQ/	.
8d\L	4f#/)	.
16.A\L	.	.
32F#\JJk	.	.
4D\)	8r	.
.	16r	.
.	(16dd\	.
*clefG2	*	*
=5	=5	=5
(8d/L	8.ff#\L	.
8a/	.	.
.	16ee\Jk	.
8e/	8.gg\L	.
8a/J	.	.
.	16cc#\Jk	.
=6	=6	=6
8f#/L	8.dd\L	.
8a/J)	.	.
.	32ff#\LL	.
.	32ee\JJJ	<
8r	16.dd\LL)	.
.	(32dd\k	.
(8f#/	16.ddd\	.
.	32ccc#\JJk	.
=7	=7	=7
8g/L	16.ccc#\LL	.
.	32bb\k	.
8f#/	16.bb\	.
.	32aa\JJk	>
8e/	16.aa\LL	.
.	32gg\k	.
8d/J	16.gg\	.
.	32ff#\JJk	.
=8	=8	=8
.	ff#Q/	.
8a/L	4ee\)	.
8e/J	.	.
4A/)	4r	.
=9	=9	=9
*^	*	*
16r	4A\	16r	.
(16g/LL	.	(16ee\LL	p
16e/	.	16cc#\	.
16g/JJ)	.	16ee\JJ)	.
16r	4A\	16r	.
(16g/LL	.	(16ee\LL	.
16e/	.	16cc#\	.
16g/JJ	.	16ee\JJ)	.
*v	*v	*	*
=10	=10	=10
8f#/L)	16r	.
.	(8dd/L	.
(8f#/	.	.
.	8a/	.
8e/	.	.
.	8g/	.
8d/J)	.	.
.	16f#/Jk)	.
=11	=11	=11
*^	*	*
16r	4A\	24r	.
.	.	(24ee\LL	.
(16g/LL	.	.	.
.	.	24dd\	.
16e/	.	24cc#\	.
.	.	24dd\	.
16g/JJ)	.	.	.
.	.	24ee\JJ)	.
16r	4A\	24r	.
.	.	(24ee\LL	.
(16g/LL	.	.	.
.	.	24dd\	.
16e/	.	24cc#\	.
.	.	24dd\	.
16g/JJ	.	.	.
.	.	24ee\JJ)	.
*v	*v	*	*
=12	=12	=12
8f#/L)	16r	.
.	8dd/L	.
(8f#/	.	.
.	8a/	.
8e/	.	.
.	8g/	.
8d/J)	.	.
.	16f#/Jk	.
=13	=13	=13
*^	*	*
16r	4B\	16r	.
(16a/LL	.	(16ff#\LL	.
16f#/	.	16dd#\	.
16a/JJ)	.	16ff#\JJ)	.
16r	4B\	16r	.
(16a/LL	.	(16ff#\LL	.
16f#/	.	16dd#\	.
16a/JJ	.	16ff#\JJ)	.
*v	*v	*	*
=14	=14	=14
8g#/L)	16r	.
.	(8ee\L	.
(8g#/	.	.
.	8b\	.
8f#/	.	.
.	8a\	.
8e/J)	.	.
.	16g#\Jk)	.
=15	=15	=15
*^	*	*
16r	4B\	24r	.
.	.	(24ff#\LL	<
(16a/LL	.	.	.
.	.	24ee\	.
16f#/	.	24dd#\	.
.	.	24ee\	.
16a/JJ)	.	.	.
.	.	24ff#\JJ)	.
16r	4B\	24r	.
.	.	(24ff#\LL	.
(16a/LL	.	.	.
.	.	24ee\	.
16f#/	.	24dd#\	.
.	.	24ee\	.
16a/JJ	.	.	.
.	.	24ff#\JJ)	.
*v	*v	*	*
=16	=16	=16
8g#/L)	16r	.
.	(8ee\L	.
(8g#/	.	.
.	8b\	.
8f#/	.	.
.	8a\	.
8e/J)	.	.
.	16g#\Jk)	.
=17	=17	=17
8r	[4f#/	mf
(16.d/LL	.	.
32c#/JJk	.	.
8d/L	8.f#/L]	.
8B`/J)	.	.
.	(32dd/LL	mf
.	32b/JJJ	.
=18	=18	=18
8r	4a/	.
(16.e/LL	.	.
32d#/JJk	.	.
8e/L	8g#/)	.
.	32ff#Q/	.
8c#`/J)	(16ee\LL	.
.	32dd\L	.
.	32cc#\JJJ	.
=19	=19	=19
8r	4b\	.
(16.f#/LL	.	.
32e/JJk	.	.
8f#/L	16a\LL	.
.	(32dd\L)	<
.	32ee\JJJ	.
.	32gg#Q/	.
8dn`/J)	16ff#\LL	.
.	32ee\L	.
.	32dd\JJJ	.
=20	=20	=20
8r	4cc#\	.
(16.g#/LL	.	.
32f#/JJk	.	.
8g#/L	16b\LL)	.
.	(32gg#\L	.
.	32aa\JJJ	.
8e`/J)	16bb\LL	.
.	16dd\JJ	.
=21	=21	=21
(8a/L	(16cc#\LK)	f
.	8ff#\	.
8g#/	.	.
.	16ee\Jk	.
8f#/	16a\LK	.
.	8dd\	.
8e/J	.	.
.	16cc#\Jk)	.
*clefF4	*	*
=22	=22	=22
(8d\L)	(16f#/LK	.
.	8b/	.
8c#\	.	.
.	16a/Jk	.
8B\	16g#/LK	.
.	8dd/	.
8A\J)	.	.
.	16cc#/Jk)	.
=23	=23	=23
8d\L	(16f#/LK	>
.	8b/	.
8c#\	.	.
.	16a/Jk	.
8B\	16g#/LK	.
.	8dd/	.
8A\J	.	.
.	16cc#/Jk	.
=24	=24	=24
.	(8cc#Q/)	.
8e`\L	4b^\)	.
8E`\J	.	.
8r	(32ee\LLL	f
.	32cc#\	.
.	32a#\	.
.	32gn\JJJ	.
8A#'\ 8c#'\	[8e/)	.
=25	=25	=25
(8B\L	(8e/L]	.
8BB\J)	8d#/J)	.
8r	(32ddn/LLL	.
.	32b/	.
.	32g#/	.
.	32fn/JJJ	.
8G#'\ 8B'\	[8dn/)	.
=26	=26	=26
(8An\L	(8d/L]	.
8AA\J)	8c#/J)	.
8r	(32aa\LLL	.
.	32ee\	.
.	32cc#\	.
.	32a\JJJ	.
8C#\ [8A\	8e/)	.
=27	=27	=27
*^	*	*
.	.	16e#Q/	.
8A/L]	4D\	8f#/L	.
.	.	(32eenQ/	.
(8d/	.	16dd/L)	.
.	.	(32cc#/L	.
.	.	32b/JJJ	.
8c#/	4E\	8a/L	.
8B/J	.	8g#T/J)	.
.	.	32f#Q/LL	.
.	.	32g#Q/JJ	.
=28	=28	=28	=28
4A/)	4AA\	8a\L	.
.	.	[8ee\J	p
*v	*v	*	*
*clefG2	*	*
*^	*	*
[4a/	4r	16ee\LL]	.
.	.	(16ccn\	.
.	.	16ffn\	.
.	.	16ee\JJ)	.
*v	*v	*	*
=29	=29	=29
16a/LL]	(4dd#\	>
(16f#/	.	.
16b/	.	.
16a/JJ	.	.
[4g#/)	(16ddn\LL)	<
.	16b\	.
.	16ee\	.
.	16dd\JJ	.
=30	=30	=30
16g#/LL]	(4cc#\)	>
(16e/	.	.
16a/	.	.
16gn/JJ	.	.
4fn/)	(16ccn\LL)	.
.	16a\	.
.	16aa\	.
.	16dd#\JJ	.
*clefF4	*	*
=31	=31	=31
16r	4ee\)	mf
(16E\LL	.	.
16e\	.	.
16d\JJ	.	.
8cn\L)	16r	.
.	(16a\LL	.
8FFn\ 8Fn\J	16aa\	f
.	16dd#\JJ	.
=32	=32	=32
.	8dd#Q/	.
8E`^/L	4ee\)	p
8EE`/J	.	.
8r	(24e\LL	.
.	24cc#\ 24ee\)	.
.	24cc#`\ 24ee`\JJ	.
8A#'\	24cc#`\ 24ee`\LL	.
.	24cc#`\ 24ee`\	.
.	24cc#`\ 24ee`\JJ	.
=33	=33	=33
(8B\L	8cc#\ (8ee\L	.
8BB\J)	8b\ 8dd#\J)	.
8r	(24e\LL	<
.	24b\ 24ddn\)	.
.	24b`\ 24dd`\JJ	.
8G#'\	24b`\ 24dd`\LL	.
.	24b`\ 24dd`\	.
.	24b`\ 24dd`\JJ	.
=34	=34	=34
(8A\L	8b\ (8dd\L	>
8AA\J)	8a\ 8cc#\J)	f
8r	(32a\LLL	.
.	32b\	.
.	32cc#\	.
.	32dd\JJJ	.
8C#\ [8A\	32ee\LLL	.
.	32ff#\	.
.	32gg#\	.
.	32aa\JJJ	.
=35	=35	=35
*^	*	*
4ry	4D\ 4A\]	8b\L	.
.	.	32gg#Q/	.
.	.	16ff#\L	.
.	.	32ee\L	.
.	.	32dd\JJJ	.
8A/L	4E\	8cc#\L	.
8G#/J	.	8bT\J	>
*v	*v	*	*
.	32aQ/LLL	.
.	32bQ/JJJ	.
=36	=36	=36
8A\L	4a/)	.
8E\J	.	.
8AA/	8r	.
16r	16r	.
=:|!|:	=:|!|:	=:|!|:
*>B	*>B	*>B
16r	(16a/	mf
*clefG2	*	*
=37	=37	=37
(8A/L	8.cc#\L	.
8e/	.	.
.	16b\Jk	.
8B/	8.dd\L	.
8e/J	.	.
.	16g#\Jk	.
=38	=38	=38
8c#/L	8.a\L	.
8e/J)	.	.
.	32cc#\LL	.
.	32b\JJJ	.
8r	16.a\LL)	.
.	(32a\k	.
(8c#/	16.aa\	.
.	32gg#\JJk	.
=39	=39	=39
8d/L	(16.ff#\LL)	.
.	32g#\k	.
8c#/	16.a\	.
.	32ee\JJk	.
.	eeQ/	.
8B/	4dd\	.
8g#/J	.	.
=40	=40	=40
.	cc#Q/LLL	.
.	ddQ/JJJ	.
.	ddQ/	.
8a/L	4cc#\)	.
16.e/L	.	.
32c#/JJk	.	.
4A/)	8r	.
.	16r	.
.	(16a/	.
=41	=41	=41
(8A/L	8.cc#\L	.
8e/	.	.
.	16b\Jk	.
8B/	8.dd\L	.
8e/J	.	.
.	16g#\Jk	.
=42	=42	=42
8c#/L	8.a\L	.
8e/J)	.	.
.	32cc#\LL	.
.	32b\JJJ	.
8r	16.a\LL)	.
.	(32a\k	.
*clefF4	*	*
(8c#\	16.aa\	.
.	32gg#\JJk	.
=43	=43	=43
8d\L	16.gg#\LL	.
.	32ff#\k	.
8c#\	16.ff#\	.
.	32ee\JJk	.
8B\	16.ee\LL	.
.	32dd\k	.
8A\J	16.dd\	.
.	32cc#\JJk	.
=44	=44	=44
.	8cc#Q/	.
8e\L	4b\)	.
16.B\L	.	.
32G#\JJk	.	.
4E\)	4r	.
=45	=45	=45
8r	[4ee\	p
*clefG2	*	*
(16.e/LL	.	.
32f#/JJk	.	.
8gn/)	(16ee\LL]	.
.	32ee\L	.
.	32ff#\JJJ	.
8r	32ggn\LLL	.
.	32ff#\	.
.	32ee\	.
.	32dd\JJJ	.
=46	=46	=46
8r	[4cc#\)	.
(16.e/LL	.	.
32f#/JJk	.	.
8g/)	16cc#\LL]	.
.	(32cc#\L	.
.	32dd\JJJ	.
8r	32ee\LLL	.
.	32dd\	.
.	32cc#\	.
.	32b\JJJ	.
=47	=47	=47
8r	[4a#/)	<
(16.e/LL	.	.
32f#/JJk	.	.
8g/)	24a#\LL]	.
.	(24cc#\	.
.	24ee\JJ	.
8r	24ggn\LL	.
.	24ee\	.
.	24cc#\JJ	.
=48	=48	=48
8r	[4a#/)	.
(16.e/LL	.	.
32f#/JJk	.	.
8g/L)	24a#\LL]	.
.	(24a#\	.
.	24cc#\JJ	.
(8e/J	24ee\LL	.
.	24cc#\	.
.	24a#\JJ	.
=49	=49	=49
*^	*	*
8r	2d\)	16b`\LL)	mf
.	.	(16ff#\	.
(8b/L	.	16dd\	.
.	.	16ff#\JJ	.
8f#/	.	24bb\LL	.
.	.	24dd\	.
.	.	24ee\JJ	.
8b/J)	.	24ff#\LL	.
.	.	24ee\	.
.	.	24dd\JJ)	.
=50	=50	=50	=50
8r	2e\	16r	.
.	.	(16gg\LL	.
(8b/L	.	16ee\	.
.	.	16gg\JJ	.
8g/	.	24bb\LL	.
.	.	24ee\	.
.	.	24ff#\JJ	.
8b/J)	.	24gg\LL	.
.	.	24ff#\	.
.	.	24ee\JJ)	.
=51	=51	=51	=51
8r	2c#\	16r	.
.	.	(16ee\LL	.
(8a/L	.	16cc#\	.
.	.	16ee\JJ	.
8e/	.	24aa\LL	.
.	.	24cc#\	.
.	.	24dd\JJ	.
8a/J)	.	24ee\LL	.
.	.	24dd\	.
.	.	24cc#\JJ)	.
=52	=52	=52	=52
8r	2d\	16r	.
.	.	(16ff#\LL	.
(8a/L	.	16dd\	.
.	.	16ff#\JJ	.
8f#/	.	24aa\LL	.
.	.	24dd\	.
.	.	24ee\JJ	.
8a/J)	.	24ff#\LL	.
.	.	24ee\	.
.	.	24dd\JJ)	.
=53	=53	=53	=53
8r	2B\	16r	.
.	.	(16dd\LL	<
(8g/L	.	16b\	.
.	.	16dd\JJ	.
8d/	.	24gg\LL	.
.	.	24b\	.
.	.	24cc#\JJ	.
8g/J)	.	24dd\LL	.
.	.	24cc#\	.
.	.	24b\JJ)	.
=54	=54	=54	=54
8r	2c#\	16r	.
.	.	(16ee\LL	.
(8g/L	.	16cc#\	.
.	.	16ee\JJ	.
8e/	.	24gg\LL	.
.	.	24cc#\	.
.	.	24dd\JJ	.
8g/J)	.	24ee\LL	.
.	.	24dd\	.
.	.	24cc#\JJ)	.
=55	=55	=55	=55
8r	2A#\	16r	.
.	.	(16cc#\LL	>
(8f#/L	.	16a#\	.
.	.	16cc#\JJ	.
8c#/	.	24ff#\LL	.
.	.	24cc#\	.
.	.	24dd\JJ	.
8f#/J)	.	24ee\LL	.
.	.	24dd\	.
.	.	24cc#\JJ)	.
=56	=56	=56	=56
8r	(4B\	24r	p
.	.	(24b\LL	.
.	.	24cc#\	.
4f#/	.	24dd\	.
.	.	24cc#\	.
.	.	24b\JJ)	.
.	4c#\	24r	.
.	.	(24a#\LL	.
.	.	24b\	.
[8f#/	.	24cc#\	.
.	.	24b\	.
.	.	24a#\JJ)	.
=57	=57	=57	=57
8f#/]	4d\	24r	.
.	.	(24b\LL	.
.	.	24cc#\	.
4f#/	.	24dd\	<
.	.	24cc#\	.
.	.	24b\JJ)	.
.	4A#\	24r	.
.	.	(24cc#\LL	.
.	.	24dd\	.
[8f#/	.	24ee\	.
.	.	24dd\	.
.	.	24cc#\JJ)	.
=58	=58	=58	=58
8f#/]	(4B\)	24r	.
.	.	(24dd\LL	.
.	.	24ee\	.
4f#/	.	24ff#\	.
.	.	24ee\	.
.	.	24dd\JJ)	.
.	4c#\	24r	.
.	.	(24ee\LL	.
.	.	24ff#\	.
[8f#/	.	24gg\	.
.	.	24ff#\	.
.	.	24ee\JJ	.
=59	=59	=59	=59
4f#/]	4d\)	16.ff#\LL)	.
.	.	(32b\k	f
.	.	16.dd\	.
.	.	32ff#\JJk	.
*v	*v	*	*
*clefF4	*	*
*^	*	*
8r	4ry	[4bb\)	.
8D\ [8B\	.	.	.
=60	=60	=60	=60
4ry	4E\ 4B\]	(16.bb\LL]	.
.	.	32ff#\JJk	.
.	.	32aaQ/	.
.	.	16gg\LL	.
.	.	32ff#\L	.
.	.	32ee\JJJ	.
(8B/L	4F#\	8dd\L	.
8A#/J	.	8cc#T\J	.
*v	*v	*	*
.	32bQ/LLL	.
.	32cc#Q/JJJ)	.
=61	=61	=61
8B`\L)	4b\	p
8BB`\J	.	.
8r	(24f#\LL	.
.	24dd\ 24ff#\)	.
.	24dd`\ 24ff#`\JJ	<
8B'\	24dd`\ 24ff#`\LL	.
.	24dd`\ 24ff#`\	.
.	24dd`\ 24ff#`\JJ	.
=62	=62	=62
(8c#\L	8dd\ (8ff#\L	>
8C#\J)	8cc#\ 8ee\J)	.
8r	(24f#\LL	<
.	24cc#\ 24ee\)	.
.	24cc#`\ 24ee`\JJ	.
8A#'\	24cc#`\ 24ee`\LL	.
.	24cc#`\ 24ee`\	.
.	24cc#`\ 24ee`\JJ	.
=63	=63	=63
(8B\L	8cc#\ (8ee\L	>
8BB\J)	8b\ 8dd\J)	.
8r	(32b\LLL	f
.	32cc#\	.
.	32dd\	.
.	32ee\	.
8D\ [8B\	32ff#\	.
.	32gg#\	.
.	32aa#\	.
.	32bb\JJJ	.
=64	=64	=64
*^	*	*
.	.	aaQ/	.
4r	4E\ 4B\]	8.ggn\L	.
.	.	32ff#\LL	>
.	.	32ee\JJJ	.
8B/L	4F#\	8dd\L	.
8A#/J	.	8cc#\J	.
*v	*v	*	*
=65	=65	=65
.	bQ/	.
.	cc#Q/	.
8B\	8b\)	.
*clefG2	*	*
8b\L	16r	.
.	(8ff#\L	p
8cc#\	.	.
.	8ee\	.
8a#\J	.	.
.	[16cc#\Jk	.
=66	=66	=66
8b/L	16cc#\LK]	.
.	8dd\)	.
8d/	.	.
.	(8b\	.
8e/	.	.
.	8ccn\	.
8f#/J	.	.
.	[16an\Jk	.
=67	=67	=67
8g/L	16a\LK]	.
.	8b\)	.
8e/	.	.
.	(8bb\	.
8f#/	.	.
.	8aa\	.
8B/J	.	.
.	[16ff#\Jk	.
=68	=68	=68
8e/L	16ff#\LK]	.
.	8gg\)	.
8g/	.	.
.	(8ee\	.
8a/	.	.
.	8ffn\	.
8b/J	.	.
.	[16dd\Jk	.
=69	=69	=69
8ccn/L	16dd\LK]	.
.	8ee\)	.
8e/	.	.
.	(8ccn\	.
8f#/	.	.
.	8dd\	.
8g#/J	.	.
.	[16b\Jk	.
=70	=70	=70
8a/L	16b\LK]	.
.	8ccn\)	.
8d/	.	.
.	(8dd\	.
8e/	.	.
.	8cc\	.
8f#/J	.	.
.	16a\Jk	.
=71	=71	=71
8g/L	(16b\LK)	<
.	8ee\	.
8f#/	.	.
.	16dd\Jk	.
8e/	16cc#\LK	.
.	8gg\	.
8d/J	.	.
.	16ff#\Jk	.
=72	=72	=72
(8g/L	16b\LK	mf
.	8ee\	.
8f#/	.	.
.	16dd\Jk	.
8e/	16cc#\LK	.
.	8gg\	.
8d/J)	.	.
.	16ff#\Jk)	.
=73	=73	=73
8g/L	(16dd\LK	.
.	8bb\	f
8f#/	.	.
.	16aa\Jk	.
8e/	16cc#\LK	.
.	8gg\	.
8d/J	.	.
.	16ff#\Jk	.
=74	=74	=74
.	ff#Q/	.
8a/L	4ee\)	>
16.e/L	.	.
32c#/JJk	.	.
4A/	8r	.
.	16r	.
.	(16d/	mf
*clefF4	*	*
=75	=75	=75
8D\L	8.f#/L	.
8A\	.	.
.	16e/Jk	.
8E\	8.g/L	.
8A\J	.	.
.	16c#/Jk	.
=76	=76	=76
8F#\L	8.d/L	.
8A\J	.	.
.	32f#/LL	.
.	32e/JJJ	.
8r	16.d/LL)	.
.	(32d/k	.
8F#\	16.dd/	.
.	32cc#/JJk	.
=77	=77	=77
8G\L	16.b/LL	.
.	32c#/k	.
8F#\	16.d/	.
.	32a/JJk	.
.	aQ/	.
8E\	4g/	.
8c#\J	.	.
=78	=78	=78
.	f#Q/LLL	.
.	gQ/JJJ	.
.	gQ/	.
8d\L	4f#/)	.
16.A\L	.	.
32F#\JJk	.	.
4D\	8r	.
.	16r	.
.	(16dd\	.
*clefG2	*	*
=79	=79	=79
8d/L	8.ff#\L	.
8a/	.	.
.	16ee\Jk	.
8e/	8.gg\L	.
8a/J	.	.
.	16cc#\Jk	.
=80	=80	=80
8f#/L	8.dd\L	.
8a/J	.	.
.	32ff#\LL	.
.	32ee\JJJ	.
8r	16.dd\LL)	.
.	(32dd\k	.
8f#/	16.ddd\	<
.	32ccc#\JJk	.
=81	=81	=81
8g/L	16.ccc#\LL	.
.	32bb\k	.
8f#/	16.bb\	.
.	32aa\JJk	.
8e/	16.aa\LL	.
.	32gg\k	.
8d/J	16.gg\	.
.	32ff#\JJk	.
=82	=82	=82
.	ff#Q/	.
8a/L	4ee\)	>
8e/J	.	.
4A/	4r	.
=83	=83	=83
*^	*	*
16r	4A\	16r	.
16g/LL	.	(16ee\LL	p
16e/	.	16cc#\	.
16g/JJ	.	16ee\JJ)	.
16r	4A\	16r	.
(16g/LL	.	(16ee\LL	.
16e/	.	16cc#\	.
16g/JJ)	.	16ee\JJ)	.
*v	*v	*	*
=84	=84	=84
8f#/L	16r	.
.	(8dd/L	.
(8f#/	.	.
.	8a'/	.
8e/	.	.
.	8g/	.
8d/J)	.	.
.	16f#/Jk)	.
=85	=85	=85
*^	*	*
16r	4A\	24r	.
.	.	(24ee\LL	.
16g/LL	.	.	.
.	.	24dd\	.
16e/	.	24cc#\	.
.	.	24dd\	.
16g/JJ	.	.	.
.	.	24ee\JJ)	.
16r	4A\	24r	.
.	.	(24ee\LL	.
(16g/LL	.	.	.
.	.	24dd\	.
16e/	.	24cc#\	.
.	.	24dd\	.
16g/JJ	.	.	.
.	.	24ee\JJ)	.
*v	*v	*	*
=86	=86	=86
8f#/L)	16r	.
.	8dd/L	.
(8f#/	.	.
.	8a/	.
8e/	.	.
.	8g/	.
8d/J)	.	.
.	16f#/Jk	.
=87	=87	=87
8r	[4b\	mf
16.g/LL	.	.
32f#/JJk	.	.
8g/L	8.b\L]	.
8e`/J	.	.
.	(32gg\LL	.
.	32ee\JJJ	.
=88	=88	=88
8r	4dd\	.
16.a/LL	.	.
32g/JJk	.	.
8a/L	8cc#\)	.
.	(bbQ/	.
8f#`/J	16aa\LL	.
.	32gg\L	.
.	32ff#\JJJ	.
=89	=89	=89
8r	(4ee\)	<
16.b/LL	.	.
32a/JJk	.	.
8b/L	16dd\LL)	.
.	(32gg\L	.
.	32aa\JJJ	.
8g`/J	16bb\LL	.
.	16gg\JJ	.
=90	=90	=90
8r	(4ff#\)	.
16.cc#\LL	.	.
32b\JJk	.	.
8cc#\L	16ee\LL)	.
.	(32ff#\L	.
.	32gg\JJJ	.
8a`\J	32aa\LLL	.
.	32gg\	.
.	32ff#\	.
.	32gg\JJJ	.
=91	=91	=91
(8dd\L	(16ff#\LK)	f
.	8bb\	.
8cc#\	.	.
.	16aa\Jk	.
8b\	16dd\LK	.
.	8gg\	.
8a\J	.	.
.	16ff#\Jk)	.
=92	=92	=92
(8g/L)	16b\LK	.
.	8ee\	.
8f#/	.	.
.	16dd\Jk	.
8e/	16cc#\LK	.
.	8gg\	.
8d/J)	.	.
.	16ff#\Jk	.
=93	=93	=93
8g/L	(16b\LK	>
.	8ee\	.
8f#/	.	.
.	16dd\Jk	.
8e/	16cc#\LK	.
.	8gg\	.
8d/J	.	.
.	16ff#\Jk	.
=94	=94	=94
.	ff#Q/	.
8a`/L	4ee\)	>
8A`/J	.	.
8r	(32aa\LLL	f
.	32ff#\	.
.	32dd#\	.
.	32ccn\JJJ	.
*clefF4	*	*
8d#'\ 8f#'\	[8a/)	.
=95	=95	=95
(8e\L	(8a/L]	.
8E\J)	8g#/J)	.
8r	(32ggn\LLL	.
.	32ee\	.
.	32cc#\	.
.	32a\JJJ	.
8c#'\ 8e'\	[8gn/)	.
=96	=96	=96
(8dn\L	(8g/L]	.
8D\J)	8f#/J)	.
8r	(32ddd\LLL	.
.	32aa\	.
.	32ff#\	.
.	32dd\JJJ	.
8F#\ [8d\	8a/)	.
=97	=97	=97
*^	*	*
.	.	(a#Q/	.
8d/L]	4G\	8b\L)	.
.	.	(aanQ/	.
8g/	.	(16gg\L)	.
.	.	32ff#\L	.
.	.	32ee\JJJ	.
8f#/	4A\	8dd\L	.
8e/J	.	8cc#\J	.
*v	*v	*	*
=98	=98	=98
.	bQ/LLL	.
.	cc#Q/JJJ	.
8d\	8dd\L)	.
8r	[8a\J	.
[4d\	(16a/LL]	p
.	16fn/	.
.	16b-/	.
.	16a/JJ	.
=99	=99	=99
16d\LL]	(4g#/)	.
(16Bn\	.	.
16e\	.	.
16d\JJ	.	.
[4c#\)	16gn/LL)	.
.	16e/	<
.	16a/	.
.	16g/JJ	.
=100	=100	=100
16c#\LL]	[4fn/	.
16A\	.	.
16d\	.	.
16cn\JJ	.	.
4B-\	16f/LL]	.
.	(16d/	mf
.	16dd/	.
.	16g#/JJ	.
=101	=101	=101
16r	[4a/)	.
16AA\LL	.	.
16A\	.	.
16Gn\JJ	.	.
8Fn\L	16a/LL]	.
.	(16d/	f
8BB-\ 8B-\J	16dd/	.
.	16g#/JJ	.
=102	=102	=102
.	g#Q/	.
4AA\ 4A\	4a/)	>
8r	(24a\LL	p
.	24ff#\ 24aa\)	<
.	24ff#`\ 24aa`\JJ	.
8d#'\	24ff#`\ 24aa`\LL	.
.	24ff#`\ 24aa`\	.
.	24ff#`\ 24aa`\JJ	.
=103	=103	=103
(8e\L	8ff#\ (8aa\L	>
8E\J)	8ee\ 8gg#\J)	.
8r	(24a\LL	<
.	24ee\ 24ggn\)	.
.	24ee`\ 24gg`\JJ	<
8c#'\	24ee`\ 24gg`\LL	.
.	24ee`\ 24gg`\	.
.	24ee`\ 24gg`\JJ	.
=104	=104	=104
8d\L	8ee\ (8gg\L	>
8D\J	8dd\ 8ff#\J)	.
8r	(32dd\LLL	f
.	32ee\	.
.	32ff#\	.
.	32gg\	.
8F#\ [8d\	32aa\	.
.	32bb\	.
.	32ccc#\	.
.	32ddd\JJJ	.
=105	=105	=105
*^	*	*
4r	4G\ 4d\]	(8ee\L)	.
.	.	ccc#Q/	.
.	.	16bb\L	.
.	.	32aa\L	.
.	.	32gg\JJJ	.
8d/L	4A\	8ff#\L	.
8c#/J	.	8ee\J	.
*v	*v	*	*
=106	=106	=106
.	ddQ/LLL	.
.	eeQ/JJJ	.
8d`\L	4dd\)	.
8D`\J	.	.
8r	(24A/LL	.
.	24f#/) 24a/	p
.	24f#`/ 24a`/JJ	.
8D#'\	24f#`/ 24a`/LL	<
.	24f#`/ 24a`/	.
.	24f#`/ 24a`/JJ	.
=107	=107	=107
(8E/L	(8f#/ 8a/L	>
8EE/J)	8e/) 8g#/J	.
8r	(24A/LL	.
.	24e/) 24gn/	.
.	24e`/ 24g`/JJ	.
8C#'/	24e`/ 24g`/LL	<
.	24e`/ 24g`/	.
.	24e`/ 24g`/JJ	.
=108	=108	=108
8D/L	(8e/ 8g/L	>
8DD/J	8d/) 8f#/J	.
8r	(32d/LLL	f
.	32e/	.
.	32f#/	.
.	32g/	.
8FF#/ [8D/	32a/	.
.	32b/	.
.	32cc#/	.
.	32dd/JJJ	.
=109	=109	=109
*^	*	*
.	.	cc#Q/	.
4GG/ 4D/]	4r	8.b/L	.
.	.	32a/LL	.
.	.	32g/JJJ	.
8D/L	4AA\	8f#/L	>
8C#/J	.	8e/J	.
*v	*v	*	*
=110	=110	=110
.	dQ/LLL	.
.	eQ/JJJ	.
8D/L	4d/)	.
8AA/J	.	.
8DD/	8r	.
16r	16r	.
==:|!	==:|!	==:|!
*-	*-	*-
!!!ENC: Craig Stuart Sapp
!!!END: 2008/03/05/
